build/img/application.svg

<svg width="54" height="54" viewBox="0 0 54 54" fill="none" xmlns="http://www.w3.org/2000/svg">
<path d="M52.4258 44.8251L43.1168 35.516C48.664 26.5375 47.5451 14.6086 39.7579 6.82142C30.6627 -2.27376 15.9167 -2.27386 6.82138 6.82142C-2.27379 15.9166 -2.27379 30.6628 6.82138 39.758C14.6085 47.5451 26.5375 48.6639 35.516 43.1168L44.8251 52.4259C46.924 54.5246 50.3269 54.5248 52.4258 52.4259C54.5248 50.3271 54.5247 46.924 52.4258 44.8251ZM34.6908 34.6909C28.3942 40.9875 18.1853 40.9875 11.8886 34.6909C5.59194 28.3944 5.59204 18.1854 11.8886 11.8888C18.1852 5.59219 28.3941 5.59219 34.6908 11.8888C40.9875 18.1853 40.9876 28.3942 34.6908 34.6909Z" fill="white"/>
<path d="M5.37457 0H0V14.3321H5.37457V0Z" transform="translate(13.6914 17.9153)" fill="white"/>
<path d="M5.37457 0H0V19.7066H5.37457V0Z" transform="translate(20.8564 12.5408)" fill="white"/>
<path d="M5.37457 0H0V14.3321H5.37457V0Z" transform="translate(28.0234 17.9153)" fill="white"/>
</svg>

<svg width="54" height="54" viewBox="0 0 54 54" fill="none" xmlns="http://www.w3.org/2000/svg"><path d="M52.426 44.825l-9.31-9.309c5.548-8.978 4.43-20.907-3.358-28.695-9.095-9.095-23.841-9.095-32.937 0-9.095 9.096-9.095 23.842 0 32.937 7.787 7.787 19.716 8.906 28.695 3.359l9.31 9.309a5.375 5.375 0 0 0 7.6-7.6zM34.69 34.691c-6.297 6.296-16.506 6.296-22.802 0-6.297-6.297-6.297-16.506 0-22.802 6.296-6.297 16.505-6.297 22.802 0 6.296 6.296 6.297 16.505 0 22.802z" fill="#fff"/><path d="M19.066 17.915h-5.375v14.332h5.375V17.915zM26.231 12.54h-5.375v19.707h5.375V12.541zM33.398 17.915h-5.375v14.332h5.375V17.915z" fill="#fff"/></svg>
